svgs/light/alicorn.svg

<svg xmlns="http://www.w3.org/2000/svg" viewBox="0 0 640 512"><!--! Font Awesome Pro 6.3.0 by @fontawesome - https://fontawesome.com License - https://fontawesome.com/license (Commercial License) Copyright 2023 Fonticons, Inc. --><path d="M632 64h-97c5.721-10.11 8.626-22.03 8.212-34.2C542.7 13.03 528 0 511.3 0l-111.3 .0003c-69.13 0-125.4 55.25-127.6 123.9C236.8 114.8 209.3 89.25 190.9 47.25c-4-9.125-13-15.12-23-15.25c-10.5 .25-18.88 5.375-23.13 14.38C133.6 70 128 95.13 128 121.1c0 75.38 56.5 143.6 132.9 161.9c4.377 1 8.877-2 9.752-6.5l2.875-15.62c.875-4.25-1.875-8.125-6-9.25c-61.75-15.12-107.5-70-107.5-130.5c0-16.38 2.75-32.25 8-47.38c29.38 56.5 76.13 86.25 136 86.25v-32c0-53.02 42.98-96 96-96h111.3c0 13.25-8.125 24.62-19.63 29.5l20.38 24.75v93.88c0 6.875-4.375 13-10.88 15.12l-25.5 8.75c-9.25 3.25-16.12-2.75-18.5-6.25l-25.13-37.75l-48-16v100.3c0 26.62-12.63 50.12-32 65.5v154.3c0 8.837-7.163 16-16 16h-32c-8.837 0-16-7.163-16-16V318.8L183.6 295.5l-32.13 89.5l18.97 75.08c2.554 10.11-5.087 19.92-15.51 19.92H130.6c-7.396 0-13.83-5.069-15.56-12.26l-18.18-75.61c-1.29-5.366-1.146-10.98 .4179-16.27l27.58-93.35c-17.38-12.12-28.88-32.25-28.88-55.12c0-15.88 5.625-30.12 14.88-41.63c-5-10.88-9-22.12-11.5-33.75c-8 6.875-15.13 15-20.75 24.12C35.13 176.9 0 212.3 0 256v47.1c0 8.801 7.2 16 16 16S32 312.8 32 304v-48c0-21.5 14.25-39.5 33.75-45.62c-1 5.625-1.75 11.12-1.75 17c0 24.25 8.875 47.37 24.5 65.25l-21.93 74.42c-3.123 10.6-3.408 21.83-.8246 32.58l18.17 75.59c5.186 21.57 24.48 36.78 46.67 36.78h24.35c31.28 0 54.21-29.44 46.53-59.77l-16.59-65.6l19.25-53.75l51.88 11.5v119.6c0 26.4 21.6 48 47.1 48l32.01-.0002c26.4 0 48.03-21.6 48.03-48l-.0277-140.2c20.5-21.5 32-49.75 32-79.5v-50.5l14.5 21.75c19.13 28.62 50 20.62 55.5 18.75l25.5-8.625c19.43-6.57 32.5-24.79 32.5-45.3V115.4l92.38-36.75C643 74.25 639.9 64 632 64zM464 96c0-8.875-7.125-16-16-16s-16 7.125-16 16s7.127 16 16 16S464 104.9 464 96z"/></svg>

<svg xmlns="http://www.w3.org/2000/svg" viewBox="0 0 640 512"><!-- Font Awesome Pro 6.0.0-alpha2 by @fontawesome - https://fontawesome.com License - https://fontawesome.com/license (Commercial License) --><path d="M632.021 64H535.018L534.893 63.75C540.614 53.641 543.643 41.973 543.23 29.805C542.66 13.034 528.049 0 511.268 0L400.014 0C330.887 0 274.635 55.25 272.385 123.875C236.758 114.75 209.258 89.25 190.881 47.25C186.881 38.125 177.881 32.125 167.881 32C157.381 32.25 149.006 37.375 144.754 46.375C133.629 70.001 128.004 95.125 128.004 121.125C128.004 196.5 184.506 264.75 260.883 283C265.26 284 269.76 281 270.635 276.5L273.51 260.875C274.385 256.625 271.635 252.75 267.51 251.625C205.758 236.5 160.006 181.625 160.006 121.125C160.006 104.75 162.756 88.875 168.006 73.75C197.381 130.25 244.133 160 304.01 160V128C304.01 74.981 346.99 32 400.01 32H511.268C511.268 45.25 503.143 56.625 491.641 61.5L512.018 86.25V180.125C512.018 187 507.643 193.125 501.143 195.25L475.641 204C466.391 207.25 459.516 201.25 457.141 197.75L432.014 160L384.014 144V244.25C384.014 270.875 371.387 294.375 352.012 309.75V464C352.012 472.837 344.848 480 336.012 480H304.01C295.173 480 288.01 472.837 288.01 464V318.75L183.631 295.5L151.506 385L170.474 460.081C173.027 470.189 165.387 480 154.961 480H130.613C123.217 480 116.785 474.931 115.057 467.74L96.879 392.125C95.589 386.759 95.733 381.148 97.297 375.855L124.879 282.5C107.504 270.375 96.004 250.25 96.004 227.375C96.004 211.5 101.629 197.25 110.879 185.75C105.879 174.875 101.879 163.625 99.379 152C91.379 158.875 84.252 167 78.627 176.125C35.127 176.875 0 212.25 0 256V304C0 312.801 7.199 320 16 320S32.002 312.799 32.002 304V256C32.002 234.5 46.252 216.5 65.752 210.375C64.752 216 64.002 221.5 64.002 227.375C64.002 251.625 72.877 274.75 88.504 292.625L66.577 367.046C63.453 377.646 63.169 388.881 65.752 399.625L83.925 475.22C89.111 496.793 108.407 512 130.595 512H154.941C186.223 512 209.146 482.557 201.475 452.23L184.881 386.625L204.131 332.875L256.008 344.375V464C256.008 490.4 277.608 512 304.008 512H336.014C362.414 512 384.014 490.4 384.014 464V323.75C404.514 302.25 416.014 274.001 416.014 244.25V193.75L430.514 215.5C449.641 244.125 480.516 236.125 486.016 234.25L511.518 225.625C530.943 219.055 544.018 200.832 544.018 180.325V115.375L636.396 78.625C643.021 74.25 639.896 64 632.021 64ZM464.016 96C464.016 87.125 456.891 80 448.016 80S432.014 87.125 432.014 96S439.141 112 448.016 112S464.016 104.875 464.016 96Z"/></svg>
